app/assets/images/heroicons/micro/document-currency-pound.svg

<svg width="16" height="16" viewBox="0 0 16 16" fill="none" xmlns="http://www.w3.org/2000/svg">
<path fill-rule="evenodd" clip-rule="evenodd" d="M2.5 3.5C2.5 2.67157 3.17157 2 4 2H8.87868C9.2765 2 9.65804 2.15804 9.93934 2.43934L13.0607 5.56066C13.342 5.84197 13.5 6.2235 13.5 6.62132V12.5C13.5 13.3284 12.8284 14 12 14H4C3.17157 14 2.5 13.3284 2.5 12.5V3.5ZM7.93934 6.93934C8.52513 6.35355 9.47487 6.35355 10.0607 6.93934C10.3536 7.23223 10.8284 7.23223 11.1213 6.93934C11.4142 6.64645 11.4142 6.17157 11.1213 5.87868C9.94975 4.70711 8.05025 4.70711 6.87868 5.87868C6.29316 6.4642 6.00012 7.2332 6 7.99966H4.75C4.33579 7.99966 4 8.33545 4 8.74966C4 9.16387 4.33579 9.49966 4.75 9.49966H5.975C5.85918 10.0702 5.35474 10.4997 4.75 10.4997C4.33579 10.4997 4 10.8354 4 11.2497C4 11.6639 4.33579 11.9997 4.75 11.9997H10.25C10.6642 11.9997 11 11.6639 11 11.2497C11 10.8354 10.6642 10.4997 10.25 10.4997H7.20015C7.35597 10.1948 7.45658 9.85711 7.48879 9.49966H9.25C9.66421 9.49966 10 9.16387 10 8.74966C10 8.33545 9.66421 7.99966 9.25 7.99966H7.5C7.50009 7.61473 7.64639 7.23229 7.93934 6.93934Z" fill="black"/>
</svg>

<svg xmlns="http://www.w3.org/2000/svg" viewBox="0 0 16 16" fill="currentColor" aria-hidden="true" data-slot="icon">
  <path fill-rule="evenodd" d="M2.5 3.5A1.5 1.5 0 0 1 4 2h4.879a1.5 1.5 0 0 1 1.06.44l3.122 3.12a1.5 1.5 0 0 1 .439 1.061V12.5A1.5 1.5 0 0 1 12 14H4a1.5 1.5 0 0 1-1.5-1.5v-9Zm5.44 3.44a1.5 1.5 0 0 1 2.12 0 .75.75 0 1 0 1.061-1.061A3 3 0 0 0 6 7.999H4.75a.75.75 0 0 0 0 1.5h1.225c-.116.571-.62 1-1.225 1a.75.75 0 1 0 0 1.5h5.5a.75.75 0 0 0 0-1.5H7.2c.156-.304.257-.642.289-1H9.25a.75.75 0 0 0 0-1.5H7.5c0-.384.146-.767.44-1.06Z" clip-rule="evenodd"/>
</svg>
